X:1
T:Trees They Do Grow High
M:4/4
L:1/4
K:Bb
 G| G2 G G| c2 c c| G A G F| D4| F F F F| A3 A| G- A G F| D4| G2 G G|\
 c3 c| G A G F| D3 D| F2 F D| C2 D- F| G4| G3||||
